X:1
T:No One Can Help You but Jesus
T:No One Can Help You but Jesus
T:W. E. Erwin
T:Elisha Albright Hoffman, 1898
T:Public Domain Courtesy of the Cyber Hymnal™
C:W. E. Erwin
Z:Public Domain
Z:Courtesy of the Cyber Hymnal™
%%score ( 1 2 ) ( 3 4 )
L:1/8
Q:1/4=95
M:6/8
K:D
V:1 treble 
V:2 treble 
V:3 bass 
V:4 bass 
V:1
 [FA][EG][FA] [GB][FA][FA] | [FA] [Fd]2- [Fd]3 | [Ec][Ec][EA] [Ec][Ec][DB] | A6 | %4
w: 1.~No one can help you but|Je- sus, *|He is your ve- ry best|friend;|
w: 2.~No one can help you but|Je- sus, *|No one but Je- sus a-|lone;|
w: 3.~No one can help you but|Je- sus, *|When you are bur- dened with|grief,|
 [FA][^E^G][FA] [=GB][FA][FA] | [FA] [Fd]2- [Fd]3 | [Gc][Gc][Gc] [GA][GB][Gc] | [Fd]6 || %8
w: Ev- er have faith in His|good- ness, *|And on His prom- ise de-|pend.|
w: Tell Him your need, He will|glad- ly *|Suc- cor and com- fort His|own.|
w: Bring Him your trou- ble and|sor- row, *|And He will give you re-|lief.|
[M:4/4]"^Refrain" [GB]2 [DG]>[DA] ([GB][Bd]) [Ac]>[GB] | [GB]2 [FA]4 z2 | [Ec]2 [Ec]>[Fd] [Ge]4 | %11
w: |||
w: No one can help * you but|Je- sus,|Je- sus a- lone,|
w: |||
 [Fd]2 [Fd]>[Ge] [Af]4 | [Fd]2 [Fd]>[A=c] [GB]2 [FA]>[^E^G] | ([FA]2 [A=c]2) [GB]4 x2 | %14
w: |||
w: Je- sus a- lone;|Tell Him your need, for He|lov- * eth|
w: |||
 [Gc]2 [Gc]>[GB] [GA]2 [GB]>[Gc] | [Fd]6 z2 |] %16
w: ||
w: Ev- er to com- fort His|own.|
w: ||
V:2
 x6 | x6 | x6 | (C2 D E3) | x6 | x6 | x6 | x6 ||[M:4/4] x8 | x8 | x8 | x8 | x8 | x10 | x8 | x8 |] %16
V:3
 [D,A,][D,B,][D,A,] [D,D][D,D][D,D] | [D,D] [D,A,]2- [D,A,]3 | %2
 [A,,A,][A,,A,][C,A,] [E,A,][E,A,][E,^G,] | (A,2 B, C3) | [D,D][D,D][D,D] [D,D][D,D][D,D] | %5
 [D,D] [D,A,]2- [D,A,]3 | [A,,A,][A,,A,][A,,A,] [A,,C][A,,D][A,,E] | [D,D]6 || %8
[M:4/4] [G,D]2 [G,B,]>[G,C] [G,D]2 [G,D]>[G,D] | [D,D]2 [D,D]4 z2 | %10
 [A,,A,]2 [A,,A,]>[A,,A,] [A,,C]4 | [D,A,]2 [D,A,]>[D,A,] [D,D]4 | %12
 [D,A,]2 [D,D]>[F,D] [G,D]2 [D,D]>[D,D] | D4 [F,,F,]2 [G,,G,D]4 | %14
 [A,,A,]2 [A,,A,]>[A,,A,D] [A,,C]2 [A,,A,]>[A,,A,] | [D,A,]6 z2 |] %16
V:4
 x6 | x6 | x6 | A,,6 | x6 | x6 | x6 | x6 ||[M:4/4] x8 | x8 | x8 | x8 | x8 | D,2 x8 | x8 | x8 |] %16

